svg/sort.svg

<svg viewBox="0 0 24 24" fill="none" xmlns="http://www.w3.org/2000/svg"><path fill-rule="evenodd" clip-rule="evenodd" d="M0,10.0867585 L6,10.0867585 L6,8.40563206 L0,8.40563206 L0,10.0867585 L0,10.0867585 Z M3,12.4056321 L3,14.0867585 L0,14.0867585 L0,12.4056321 L3,12.4056321 Z M15.1301377,0 L15.1301377,1.68112641 L0,1.68112641 L0,0 L15.1301377,0 Z M13.8692929,4.62309763 L13.8692929,11.8384922 L16.8112641,8.89802258 L18,10.0867585 L13.0287297,15.0580288 L8.05745938,10.0867585 L9.24619526,8.89802258 L12.1881665,11.8393328 L12.1881665,4.62309763 L13.8692929,4.62309763 Z M10.0867585,4.20281603 L10.0867585,5.88394244 L0,5.88394244 L0,4.20281603 L10.0867585,4.20281603 Z" fill="#000"/></svg>

<svg viewBox="0 0 24 24" fill="none" xmlns="http://www.w3.org/2000/svg"><path fill-rule="evenodd" clip-rule="evenodd" d="M0 10.087h6V8.406H0v1.68zm3 2.319v1.68H0v-1.68h3zM15.13 0v1.681H0V0h15.13zm-1.26 4.623v7.215l2.941-2.94L18 10.087l-4.971 4.971-4.972-4.971 1.19-1.189 2.941 2.941V4.623h1.681zm-3.783-.42v1.68H0v-1.68h10.087z" fill="#000"/></svg>
